src/topics/icons/iron.svg

<svg height="185" preserveAspectRatio="xMidYMid" viewBox="0 0 512 185" width="512" xmlns="http://www.w3.org/2000/svg"><g fill="#282927"><path d="m105.061699 89.3083836c-11.3095894-1.3816987-20.6869045 6.0773698-27.9075072 15.8018634-.4629041.624219-1.2414247.869698-1.977863.624219-.7399452-.248987-1.2168767-.901261-1.2168767-1.679781v-6.7787398c0-3.9066301-3.1807124-7.0873425-7.0873425-7.0873425h-17.4220274c-3.9031233 0-7.0838356 3.1772055-7.0838356 7.076822l-.0350685 76.8280543c0 3.89611 3.1842192 7.083836 7.0873424 7.083836h17.4535891c3.9066301 0 7.0873425-3.180712 7.0873425-7.083836v-18.37589c0-13.778411 17.1905753-33.357151 31.1022469-34.353096z"/><path d="m33.6622466 174.093479v-103.8658626c0-3.9101369-3.1842192-7.0908493-7.0873425-7.0908493h-19.48756163c-3.90312329 0-7.08734247 3.1807124-7.08734247 7.0908493v103.8658626c0 3.903124 3.18421918 7.083836 7.08734247 7.083836h19.48756163c3.9031233 0 7.0873425-3.180712 7.0873425-7.083836"/><path d="m156.54926 116.788055c-11.218411 0-20.311671 8.967013-20.311671 20.027616s9.09326 20.03463 20.311671 20.03463 20.311672-8.974027 20.311672-20.03463-9.093261-20.027616-20.311672-20.027616zm0-28.0162194c26.904548 0 48.717151 21.5110134 48.717151 48.0438354s-21.812603 48.047343-48.717151 48.047343c-26.901041 0-48.713644-21.514521-48.713644-48.047343s21.812603-48.0438354 48.713644-48.0438354z"/><path d="m430.307945 116.788055c-11.214904 0-20.311671 8.967013-20.311671 20.027616s9.096767 20.03463 20.311671 20.03463 20.308165-8.974027 20.308165-20.03463-9.093261-20.027616-20.308165-20.027616zm0-28.0162194c26.901041 0 48.710137 21.5110134 48.710137 48.0438354s-21.809096 48.047343-48.710137 48.047343c-26.908055 0-48.71715-21.514521-48.71715-48.047343s21.809095-48.0438354 48.71715-48.0438354z"/><path d="m301.161205 174.093479v-49.737643c0-31.7930963-33.900712-42.1137538-54.619178-22.243946l-3.682191-6.1159448c-1.315069-2.1917808-3.513863-3.4332055-6.073863-3.4332055h-18.337315c-3.903124 0-7.087343 3.1842192-7.087343 7.0873425v74.4433968c0 3.903124 3.184219 7.083836 7.087343 7.083836h21.00252c3.903123 0 7.090849-3.180712 7.090849-7.083836v-45.487342c0-5.372493 4.348494-9.724493 9.720987-9.724493 5.368986 0 9.724493 4.352 9.724493 9.724493v45.487342c0 3.903124 3.177205 7.083836 7.087342 7.083836h20.999014c3.89611 0 7.087342-3.180712 7.087342-7.083836"/></g><path d="m260.274849 67.3484932c-.57863.8381369-1.946301 3.2718904-3.636602 6.5052054h15.563397c.690849 0 1.360657.1087124 1.99189.3086028 6.070356-8.1148493 13.403178-13.497863 21.31463-16.1385206 8.633863-2.886137 18.123398-2.5459726 27.532274 1.0275069l-.003506.0140274c3.811945 1.4518356 8.072767-.350685 9.710465-4.0363836 8.206028-15.4090959 18.228603-25.8595068 28.899945-31.9964931 7.99211-4.6009863 16.380494-6.7892603 24.628603-6.8348494 8.251617-.045589 16.429589 2.0550137 23.990356 6.0423014 10.180384 5.3584658 19.210521 14.1080548 25.820932 25.6035069l6.613918-3.7979178-6.638466 3.815452c1.648219 2.8721096 4.881534 4.2678356 7.960548 3.7277808 15.630027-1.5044383 28.212603 3.1246028 37.05337 11.2780274 6.33337 5.842411 10.839671 13.5364384 13.24537 22.1247124 2.454794 8.7425753 2.731835 18.3758899.564602 27.9320549-1.648219 7.241644-4.702685 14.441205-9.296657 21.18137.466411 2.872109.708383 5.810849.708383 8.809205 0 5.502247-.813589 10.829151-2.332054 15.850959 13.981808-12.228383 22.359671-27.241205 25.817424-42.496 2.73885-12.067068 2.377644-24.2814246-.736438-35.4016437-3.156165-11.2745206-9.14937-21.4443836-17.618411-29.254137-11.057096-10.1979178-26.213699-16.3103562-44.656219-15.5318356-7.830795-12.056548-18.007671-21.3777535-29.383891-27.3674521-9.735013-5.13052055-20.360767-7.83780822-31.179397-7.77819178-10.829151.05610959-21.788055 2.89665754-32.164822 8.86882192-4.720219 2.71430136-9.317698 6.07386306-13.718794 10.10673976l-85.090192 5.9195616 77.013918 2.5564932c-3.569973 4.2503013-6.954083 9.0231232-10.113754 14.3324931-10.678356-2.8124931-21.419835-2.5459726-31.473972.8206028-8.910904 2.977315-16.454137 7.5677808-23.566028 15.3529863l-60.875397 3.955726 55.460822 2.5319452c-.473425.6417534-.943343 1.3010411-1.406247 1.9673425" fill="#c52437"/><path d="m369.769205 94.2390137h-17.748164c-3.538411 0-6.428055 3.3034521-6.428055 7.3468493v72.241096c0 4.050411 2.889644 7.350356 6.428055 7.350356h17.748164c3.534905 0 6.428055-3.299945 6.428055-7.350356v-72.241096c0-4.0433972-2.89315-7.3468493-6.428055-7.3468493" fill="#282927"/><path d="m333.424219 149.163288h-20.392329c-3.513863 0-6.431561 3.331507-6.431561 7.353863v17.309808c0 4.015342 2.886137 7.350356 6.431561 7.350356h20.392329c3.545425 0 6.428055-3.299945 6.428055-7.350356v-17.309808c0-4.050411-2.914192-7.353863-6.428055-7.353863" fill="#282927"/><path d="m369.762192 66.2648767h-17.741151c-3.520877 0-6.431562 3.3244932-6.431562 7.353863v6.0668493c0 4.0223562 2.893151 7.3468494 6.431562 7.3468494h17.741151c3.541918 0 6.431561-3.2999452 6.431561-7.3468494v-6.0668493c0-4.0504109-2.914191-7.353863-6.431561-7.353863" fill="#282927"/></svg>

<?xml version="1.0" encoding="UTF-8" standalone="no"?>
<svg width="512px" height="185px" viewBox="0 0 512 185" version="1.1" xmlns="http://www.w3.org/2000/svg" xmlns:xlink="http://www.w3.org/1999/xlink" preserveAspectRatio="xMidYMid">
	<g>
		<path d="M105.061699,89.3083836 C93.7521096,87.9266849 84.3747945,95.3857534 77.1541918,105.110247 C76.6912877,105.734466 75.9127671,105.979945 75.1763288,105.734466 C74.4363836,105.485479 73.9594521,104.833205 73.9594521,104.054685 L73.9594521,97.2759452 C73.9594521,93.3693151 70.7787397,90.1886027 66.8721096,90.1886027 L49.4500822,90.1886027 C45.5469589,90.1886027 42.3662466,93.3658082 42.3662466,97.2654247 L42.3311781,174.093479 C42.3311781,177.989589 45.5153973,181.177315 49.4185205,181.177315 L66.8721096,181.177315 C70.7787397,181.177315 73.9594521,177.996603 73.9594521,174.093479 L73.9594521,155.717589 C73.9594521,141.939178 91.1500274,122.360438 105.061699,121.364493 L105.061699,89.3083836" fill="#282927"></path>
		<path d="M33.6622466,174.093479 L33.6622466,70.2276164 C33.6622466,66.3174795 30.4780274,63.1367671 26.5749041,63.1367671 L7.08734247,63.1367671 C3.18421918,63.1367671 0,66.3174795 0,70.2276164 L0,174.093479 C0,177.996603 3.18421918,181.177315 7.08734247,181.177315 L26.5749041,181.177315 C30.4780274,181.177315 33.6622466,177.996603 33.6622466,174.093479" fill="#282927"></path>
		<path d="M156.54926,116.788055 C145.330849,116.788055 136.237589,125.755068 136.237589,136.815671 C136.237589,147.876274 145.330849,156.850301 156.54926,156.850301 C167.767671,156.850301 176.860932,147.876274 176.860932,136.815671 C176.860932,125.755068 167.767671,116.788055 156.54926,116.788055 L156.54926,116.788055 Z M156.54926,88.7718356 C183.453808,88.7718356 205.266411,110.282849 205.266411,136.815671 C205.266411,163.348493 183.453808,184.863014 156.54926,184.863014 C129.648219,184.863014 107.835616,163.348493 107.835616,136.815671 C107.835616,110.282849 129.648219,88.7718356 156.54926,88.7718356 L156.54926,88.7718356 Z" fill="#282927"></path>
		<path d="M430.307945,116.788055 C419.093041,116.788055 409.996274,125.755068 409.996274,136.815671 C409.996274,147.876274 419.093041,156.850301 430.307945,156.850301 C441.522849,156.850301 450.61611,147.876274 450.61611,136.815671 C450.61611,125.755068 441.522849,116.788055 430.307945,116.788055 L430.307945,116.788055 Z M430.307945,88.7718356 C457.208986,88.7718356 479.018082,110.282849 479.018082,136.815671 C479.018082,163.348493 457.208986,184.863014 430.307945,184.863014 C403.39989,184.863014 381.590795,163.348493 381.590795,136.815671 C381.590795,110.282849 403.39989,88.7718356 430.307945,88.7718356 L430.307945,88.7718356 Z" fill="#282927"></path>
		<path d="M301.161205,174.093479 L301.161205,124.355836 C301.161205,92.5627397 267.260493,82.2420822 246.542027,102.11189 L242.859836,95.9959452 C241.544767,93.8041644 239.345973,92.5627397 236.785973,92.5627397 L218.448658,92.5627397 C214.545534,92.5627397 211.361315,95.7469589 211.361315,99.6500822 L211.361315,174.093479 C211.361315,177.996603 214.545534,181.177315 218.448658,181.177315 L239.451178,181.177315 C243.354301,181.177315 246.542027,177.996603 246.542027,174.093479 L246.542027,128.606137 C246.542027,123.233644 250.890521,118.881644 256.263014,118.881644 C261.632,118.881644 265.987507,123.233644 265.987507,128.606137 L265.987507,174.093479 C265.987507,177.996603 269.164712,181.177315 273.074849,181.177315 L294.073863,181.177315 C297.969973,181.177315 301.161205,177.996603 301.161205,174.093479" fill="#282927"></path>
		<path d="M260.274849,67.3484932 C259.696219,68.1866301 258.328548,70.6203836 256.638247,73.8536986 L272.201644,73.8536986 C272.892493,73.8536986 273.562301,73.962411 274.193534,74.1623014 C280.26389,66.0474521 287.596712,60.6644384 295.508164,58.0237808 C304.142027,55.1376438 313.631562,55.4778082 323.040438,59.0512877 L323.036932,59.0653151 C326.848877,60.5171507 331.109699,58.7146301 332.747397,55.0289315 C340.953425,39.6198356 350.976,29.1694247 361.647342,23.0324384 C369.639452,18.4314521 378.027836,16.2431781 386.275945,16.197589 C394.527562,16.152 402.705534,18.2526027 410.266301,22.2398904 C420.446685,27.5983562 429.476822,36.3479452 436.087233,47.8433973 L442.701151,44.0454795 L436.062685,47.8609315 C437.710904,50.7330411 440.944219,52.1287671 444.023233,51.5887123 C459.65326,50.084274 472.235836,54.7133151 481.076603,62.8667397 C487.409973,68.7091507 491.916274,76.4031781 494.321973,84.9914521 C496.776767,93.7340274 497.053808,103.367342 494.886575,112.923507 C493.238356,120.165151 490.18389,127.364712 485.589918,134.104877 C486.056329,136.976986 486.298301,139.915726 486.298301,142.914082 C486.298301,148.416329 485.484712,153.743233 483.966247,158.765041 C497.948055,146.536658 506.325918,131.523836 509.783671,116.269041 C512.522521,104.201973 512.161315,91.9876164 509.047233,80.8673973 C505.891068,69.5928767 499.897863,59.4230137 491.428822,51.6132603 C480.371726,41.4153425 465.215123,35.3029041 446.772603,36.0814247 C438.941808,24.0248767 428.764932,14.7036712 417.388712,8.7139726 C407.653699,3.58345205 397.027945,0.876164384 386.209315,0.935780822 C375.380164,0.991890411 364.42126,3.83243836 354.044493,9.80460274 C349.324274,12.5189041 344.726795,15.8784658 340.325699,19.9113425 L255.235507,25.8309041 L332.249425,28.3873973 C328.679452,32.6376986 325.295342,37.4105205 322.135671,42.7198904 C311.457315,39.9073973 300.715836,40.1739178 290.661699,43.5404932 C281.750795,46.5178082 274.207562,51.108274 267.095671,58.8934795 L206.220274,62.8492055 L261.681096,65.3811507 C261.207671,66.0229041 260.737753,66.6821918 260.274849,67.3484932" fill="#C52437"></path>
		<path d="M369.769205,94.2390137 L352.021041,94.2390137 C348.48263,94.2390137 345.592986,97.5424658 345.592986,101.585863 L345.592986,173.826959 C345.592986,177.87737 348.48263,181.177315 352.021041,181.177315 L369.769205,181.177315 C373.30411,181.177315 376.19726,177.87737 376.19726,173.826959 L376.19726,101.585863 C376.19726,97.5424658 373.30411,94.2390137 369.769205,94.2390137" fill="#282927"></path>
		<path d="M333.424219,149.163288 L313.03189,149.163288 C309.518027,149.163288 306.600329,152.494795 306.600329,156.517151 L306.600329,173.826959 C306.600329,177.842301 309.486466,181.177315 313.03189,181.177315 L333.424219,181.177315 C336.969644,181.177315 339.852274,177.87737 339.852274,173.826959 L339.852274,156.517151 C339.852274,152.46674 336.938082,149.163288 333.424219,149.163288" fill="#282927"></path>
		<path d="M369.762192,66.2648767 L352.021041,66.2648767 C348.500164,66.2648767 345.589479,69.5893699 345.589479,73.6187397 L345.589479,79.685589 C345.589479,83.7079452 348.48263,87.0324384 352.021041,87.0324384 L369.762192,87.0324384 C373.30411,87.0324384 376.193753,83.7324932 376.193753,79.685589 L376.193753,73.6187397 C376.193753,69.5683288 373.279562,66.2648767 369.762192,66.2648767" fill="#282927"></path>
	</g>
</svg>
